src/icons/svg/viewGallery.svg

<?xml version="1.0" standalone="no"?><!DOCTYPE svg PUBLIC "-//W3C//DTD SVG 1.1//EN" "http://www.w3.org/Graphics/SVG/1.1/DTD/svg11.dtd"><svg t="1557388871223" class="icon" style="" viewBox="0 0 1024 1024" version="1.1" xmlns="http://www.w3.org/2000/svg" p-id="2974" xmlns:xlink="http://www.w3.org/1999/xlink" width="128" height="128"><defs><style type="text/css"></style></defs><path d="M147.04975 49.951219 348.539994 49.951219C390.229001 49.951219 423.931625 83.45593 423.931625 125.058766L423.931625 349.47782C423.931625 390.977141 390.167209 424.585365 348.539994 424.585365L147.04975 424.585365C105.360742 424.585365 71.65812 391.080655 71.65812 349.47782L71.65812 125.058766C71.65812 83.559445 105.422534 49.951219 147.04975 49.951219ZM21.333333 349.47782C21.333333 418.650511 77.549527 474.536585 147.04975 474.536585L348.539994 474.536585C417.992574 474.536585 474.25641 418.533018 474.25641 349.47782L474.25641 125.058766C474.25641 55.886075 418.040215 0 348.539994 0L147.04975 0C77.597169 0 21.333333 56.003567 21.333333 125.058766L21.333333 349.47782Z" p-id="2975"></path><path d="M675.460006 49.951219 876.950251 49.951219C918.639258 49.951219 952.341879 83.45593 952.341879 125.058766L952.341879 349.47782C952.341879 390.977141 918.577466 424.585365 876.950251 424.585365L675.460006 424.585365C633.770999 424.585365 600.068375 391.080655 600.068375 349.47782L600.068375 125.058766C600.068375 83.559445 633.832791 49.951219 675.460006 49.951219ZM549.74359 349.47782C549.74359 418.650511 605.959785 474.536585 675.460006 474.536585L876.950251 474.536585C946.402831 474.536585 1002.666667 418.533018 1002.666667 349.47782L1002.666667 125.058766C1002.666667 55.886075 946.450473 0 876.950251 0L675.460006 0C606.007426 0 549.74359 56.003567 549.74359 125.058766L549.74359 349.47782Z" p-id="2976"></path><path d="M147.04975 599.414635 348.539994 599.414635C390.229001 599.414635 423.931625 632.919345 423.931625 674.52218L423.931625 898.941233C423.931625 940.440555 390.167209 974.048781 348.539994 974.048781L147.04975 974.048781C105.360742 974.048781 71.65812 940.54407 71.65812 898.941233L71.65812 674.52218C71.65812 633.022859 105.422534 599.414635 147.04975 599.414635ZM21.333333 898.941233C21.333333 968.113924 77.549527 1024 147.04975 1024L348.539994 1024C417.992574 1024 474.25641 967.996433 474.25641 898.941233L474.25641 674.52218C474.25641 605.349489 418.040215 549.463415 348.539994 549.463415L147.04975 549.463415C77.597169 549.463415 21.333333 605.466982 21.333333 674.52218L21.333333 898.941233Z" p-id="2977"></path><path d="M874.686701 974.048781 868.289711 974.048781 845.457374 974.048781 776.173041 974.048781 675.395834 974.048781C633.745909 974.048781 600.068375 940.547631 600.068375 898.941233L600.068375 674.52218C600.068375 633.022859 633.832791 599.414635 675.460006 599.414635L876.950251 599.414635C918.642281 599.414635 952.341879 632.88393 952.341879 674.420529L952.341879 869.021858 952.341879 899.065886C952.341879 912.859535 963.607467 924.041495 977.504273 924.041495 991.401079 924.041495 1002.666667 912.859535 1002.666667 899.065886L1002.666667 869.021858 1002.666667 674.420529C1002.666667 605.303266 946.442579 549.463415 876.950251 549.463415L675.460006 549.463415C606.007426 549.463415 549.74359 605.466982 549.74359 674.52218L549.74359 898.941233C549.74359 968.110364 605.927488 1024 675.395834 1024L776.173041 1024 845.457374 1024 868.289711 1024 874.686701 1024 876.37206 1024C890.847055 1024 902.112642 1012.818039 902.112642 999.02439 902.112642 985.230741 890.847055 974.048781 876.950251 974.048781L874.686701 974.048781Z" p-id="2978"></path></svg>

<svg class="icon" viewBox="0 0 1024 1024" xmlns="http://www.w3.org/2000/svg" width="128" height="128"><defs><style/></defs><path d="M147.05 49.951h201.49c41.689 0 75.392 33.505 75.392 75.108v224.419c0 41.5-33.765 75.107-75.392 75.107H147.05c-41.69 0-75.392-33.504-75.392-75.107v-224.42c0-41.499 33.765-75.107 75.392-75.107zM21.333 349.478c0 69.173 56.217 125.059 125.717 125.059h201.49c69.453 0 125.716-56.004 125.716-125.06V125.06C474.256 55.886 418.04 0 348.54 0H147.05C77.597 0 21.333 56.004 21.333 125.059v224.419zM675.46 49.951h201.49c41.69 0 75.392 33.505 75.392 75.108v224.419c0 41.5-33.765 75.107-75.392 75.107H675.46c-41.689 0-75.392-33.504-75.392-75.107v-224.42c0-41.499 33.765-75.107 75.392-75.107zM549.744 349.478c0 69.173 56.216 125.059 125.716 125.059h201.49c69.453 0 125.717-56.004 125.717-125.06V125.06C1002.667 55.886 946.45 0 876.95 0H675.46c-69.453 0-125.716 56.004-125.716 125.059v224.419zM147.05 599.415h201.49c41.689 0 75.392 33.504 75.392 75.107v224.42c0 41.499-33.765 75.107-75.392 75.107H147.05c-41.69 0-75.392-33.505-75.392-75.108V674.522c0-41.5 33.765-75.107 75.392-75.107zM21.333 898.94C21.333 968.114 77.55 1024 147.05 1024h201.49c69.453 0 125.716-56.004 125.716-125.059V674.522c0-69.173-56.216-125.059-125.716-125.059H147.05c-69.453 0-125.717 56.004-125.717 125.06V898.94zM874.687 974.049H675.396c-41.65 0-75.328-33.501-75.328-75.108V674.522c0-41.5 33.765-75.107 75.392-75.107h201.49c41.692 0 75.392 33.469 75.392 75.006V899.066c0 13.794 11.265 24.975 25.162 24.975 13.897 0 25.163-11.181 25.163-24.975V674.42c0-69.118-56.224-124.958-125.717-124.958H675.46c-69.453 0-125.716 56.004-125.716 125.06V898.94c0 69.17 56.183 125.059 125.652 125.059h200.976c14.475 0 25.74-11.182 25.74-24.976 0-13.793-11.265-24.975-25.162-24.975h-2.263z"/></svg>
